icons/snyk-light.svg

<svg width="256" height="256" viewBox="0 0 256 256" fill="none" xmlns="http://www.w3.org/2000/svg">
    <path d="M196 0H60C26.8629 0 0 26.8629 0 60V196C0 229.137 26.8629 256 60 256H196C229.137 256 256 229.137 256 196V60C256 26.8629 229.137 0 196 0Z" fill="#F4F2ED"/>
    <g clip-path="url(#clip0_32_157)">
        <path d="M179.261 65.4846C174.43 50.4614 163.446 29.3509 161.881 26.3794L160.518 23.782C159.628 22.0008 158.721 20.2284 157.796 18.4652L152.847 9.03485L145.757 59.5443L145.51 61.3813C139.879 61.0615 134.239 60.9024 128.598 60.9043C122.595 60.9043 116.919 61.0803 111.587 61.3869L111.368 59.5431L108.88 41.838C108.883 41.8085 104.267 9.03485 104.267 9.03485L99.214 18.4652C97.9759 20.818 96.7652 23.1851 95.5822 25.5662L95.146 26.3794C93.5771 29.3538 82.4886 50.5018 77.6271 65.5272C63.6029 68.2432 56 71.1483 56 71.1483V193.927L128.499 246.579L201 193.928V71.1483C201 71.1483 193.373 68.2125 179.261 65.4846Z" fill="white"/>
        <path d="M159.694 160.809H128.443V107.164L96.7342 159.24L91.8048 212.716L127.956 239.188L128.443 239.547L165.414 212.525L159.694 160.809Z" fill="#3B3B63"/>
        <path d="M127.908 238.997L60.6332 190.099V76.076C60.6332 76.076 85.5086 66.5628 127.999 66.5628C170.491 66.5628 195.184 76.076 195.184 76.076V190.099L127.908 238.997L127.908 238.997Z" fill="#DBDBDB"/>
        <path d="M128.882 66.5628L128.79 66.5639V238.994H128.791L196.067 190.096V76.076C196.067 76.076 171.373 66.5628 128.882 66.5628Z" fill="#C6C6C6"/>
        <path d="M165.23 212.415L159.52 160.809H128.268V239.427L165.23 212.415Z" fill="#3B3B63"/>
        <path d="M91.8042 212.716L128.443 239.547V107.164L96.7342 159.24L91.8042 212.716Z" fill="#53537A"/>
        <path d="M144.212 197.472C144.212 206.321 136.104 210.707 128.666 210.707C121.228 210.707 112.956 206.321 112.956 197.472" fill="#BC9375"/>
        <path d="M139.654 192.458C139.654 202.835 134.173 205.617 128.584 205.617C122.996 205.617 117.513 202.835 117.513 192.458" fill="#073251"/>
        <path d="M128.583 202.048C122.612 202.048 119.708 197.582 119.708 188.403H122.556C122.556 199.15 126.626 199.15 128.583 199.15C130.54 199.15 134.611 199.15 134.611 188.403H137.458C137.458 197.582 134.554 202.048 128.583 202.048Z" fill="white"/>
        <path d="M175.983 82.6416C175.983 71.447 157.422 36.2253 157.422 36.2253L151.143 80.8943L145.508 90.3247L128.618 91.0248L128.552 91.1634V91.0248L111.66 90.3247L106.026 80.8943L99.7475 36.2247C99.7475 36.2247 81.1847 71.447 81.1847 82.6416L89.0266 104.152C89.0266 104.152 85.0691 140.282 86.8759 145.012C88.6771 149.744 101.189 165.566 101.189 165.566C101.189 165.566 101.152 178.867 104.577 188.43C107.021 195.259 112.406 198.029 117.562 198.029C125.46 198.029 128.55 190.643 128.55 190.643C128.55 190.643 131.714 198.029 139.612 198.029C144.767 198.029 150.146 195.263 152.596 188.43C156.018 178.871 155.983 165.566 155.983 165.566C155.983 165.566 168.492 149.744 170.297 145.012C172.103 140.281 168.144 104.151 168.144 104.151L175.983 82.6416Z" fill="#C49A7E"/>
        <path d="M128.583 91.0963L128.551 91.1634V91.0254L111.658 90.3258L106.026 80.8949L99.7447 36.2258C99.7447 36.2258 81.1836 71.4481 81.1836 82.6427L89.0238 104.152C89.0238 104.152 85.0674 140.283 86.8714 145.013C88.6766 149.745 101.183 165.567 101.183 165.567C101.183 165.567 101.151 178.868 104.573 188.431C107.02 195.26 112.406 198.03 117.557 198.03C125.459 198.03 128.549 190.644 128.549 190.644C128.549 190.644 128.563 190.671 128.584 190.719V91.0963H128.583Z" fill="#D8B7A0"/>
        <path d="M168.313 106.268C166.875 103.2 168.92 95.939 168.92 95.939C157.199 83.6933 154.268 58.1575 154.268 58.1575C152.079 66.2039 147.322 89.9283 147.322 89.9283C147.322 89.9283 138.574 86.6075 128.622 86.5916H128.548C128.002 86.5944 127.463 86.6086 126.925 86.6257V186.734L127.668 187.843V187.295H128.127V187.843L128.132 187.295H129.039H129.504V187.843L137.606 175.784L139.367 141.921L149.455 153.649L162.45 157.519C162.45 157.519 167.312 153.986 167.312 153.999C169.377 151.053 170.062 148.543 170.561 147.241C172.366 142.503 168.313 106.269 168.313 106.269" fill="#3B3B63"/>
        <path d="M128.674 86.5904L128.64 86.5893V86.5904C118.684 86.6075 109.935 89.926 109.935 89.926C109.935 89.926 105.177 66.2028 102.99 58.1558C102.99 58.1558 100.061 83.6916 88.3373 95.9373C88.3373 95.9373 90.3826 103.199 88.9444 106.267C88.9444 106.267 84.8912 142.503 86.6969 147.234C87.1954 148.537 87.8853 151.045 89.947 153.991C89.947 153.978 94.8113 157.512 94.8113 157.512L107.805 153.642L117.89 141.915L119.656 175.778L127.754 187.837V187.289H128.218H128.673V86.5904H128.674Z" fill="#53537A"/>
        <path d="M152.164 128.934H136.982V129.097C136.982 134.495 141.567 138.868 146.944 138.868C152.323 138.868 156.908 134.494 156.908 129.097V128.934H152.164Z" fill="#333152"/>
        <path d="M140.777 128.934V129.097C140.777 132.308 143.316 134.91 146.472 134.91C149.627 134.91 152.164 132.308 152.164 129.097V128.934H140.777Z" fill="white"/>
        <path d="M148.228 128.934H145.56C145.534 128.934 145.512 128.947 145.489 128.952C145.82 129.022 146.003 129.786 145.932 130.295C145.882 130.66 145.703 130.995 145.427 131.239C145.151 131.483 144.797 131.62 144.43 131.624C144.647 132.64 145.46 133.456 146.541 133.612C147.921 133.81 149.196 132.847 149.392 131.442C149.533 130.409 149.044 128.934 148.228 128.934ZM115.516 128.934H100.335V129.097C100.335 134.495 104.92 138.868 110.297 138.868C115.676 138.868 120.261 134.494 120.261 129.097V128.934H115.516Z" fill="#333152"/>
        <path d="M104.131 128.934V129.097C104.131 132.308 106.671 134.91 109.823 134.91C112.979 134.91 115.517 132.308 115.517 129.097V128.934H104.131Z" fill="white"/>
        <path d="M111.581 128.934H108.911C108.888 128.934 108.863 128.947 108.841 128.952C109.171 129.022 109.354 129.786 109.284 130.295C109.176 131.072 108.53 131.611 107.78 131.624C108 132.64 108.813 133.456 109.892 133.612C111.272 133.81 112.55 132.847 112.743 131.442C112.886 130.409 112.397 128.934 111.581 128.934Z" fill="#333152"/>
        <path d="M151.019 124.326C151.656 123.615 157.068 117.364 149.83 117.364C143.29 117.364 138.584 122.736 137.337 124.326H151.019Z" fill="#C49A7E"/>
        <path d="M119.799 124.326C118.553 122.736 113.847 117.364 107.305 117.364C100.07 117.364 105.482 123.615 106.116 124.326H119.799Z" fill="#D8B7A0"/>
        <path d="M96.843 128.876H124.53V126.226H96.843V128.876Z" fill="#53537A"/>
        <path d="M168.815 91.2963C160.764 79.7757 158.239 61.0467 158.019 59.3352L159.488 48.8952C165.466 61.2778 171.738 75.9733 172.168 82.1061L168.815 91.2963ZM166.758 143.705C165.66 146.581 158.067 156.855 153.024 163.234L152.183 164.303L152.187 165.668C152.187 165.791 152.183 178.384 149.028 187.198C146.747 193.567 141.68 194.256 139.611 194.256C134.37 194.256 132.109 189.366 132.029 189.189L131.73 184.609H125.359L125.072 189.163C124.981 189.37 122.775 194.243 117.561 194.243C115.486 194.243 110.421 193.562 108.139 187.192C104.994 178.411 104.979 165.791 104.979 165.663L104.984 164.298L104.143 163.234C99.1024 156.859 91.5097 146.585 90.4375 143.78C89.5805 140.745 90.9954 121.119 92.7966 104.674L92.8957 103.761L91.4746 99.8669C96.357 94.6562 99.7838 87.4854 102.147 80.6592L102.377 82.3208L110.131 95.2922L113.162 93.968C113.238 93.9351 121.007 90.57 128.552 90.57C136.048 90.57 143.946 93.9379 144.02 93.9714L147.045 95.2837L154.791 82.3179L155.094 80.1527C157.434 87.0464 160.856 94.3451 165.762 99.6715L164.274 103.758L164.373 104.67C166.173 121.119 167.588 140.745 166.758 143.705ZM123.859 200.63C124.826 200.194 125.743 199.655 126.595 199.023C127.333 199.242 128.04 199.242 128.583 199.242C129.124 199.242 129.824 199.248 130.556 199.027C131.411 199.655 132.329 200.193 133.296 200.63C132.024 201.597 130.459 202.141 128.587 202.141C126.705 202.141 125.132 201.602 123.859 200.63ZM128.666 208.869C124.499 208.869 118.575 206.978 117.101 201.965C117.252 201.97 117.4 201.983 117.554 201.983C118.359 201.983 119.114 201.908 119.844 201.802C121.957 204.797 125.249 205.716 128.584 205.716C131.925 205.716 135.224 204.806 137.341 201.806C138.066 201.907 138.812 201.983 139.611 201.983C139.768 201.983 139.918 201.97 140.075 201.966C138.615 206.978 132.77 208.869 128.666 208.869ZM85.0034 82.1044C85.4339 75.9716 91.7011 61.2773 97.6801 48.8935L99.274 60.2165C98.6662 64.4499 95.8886 81.0528 88.4375 91.5183L85.0034 82.1044ZM179.683 82.7336C179.683 70.9098 162.662 38.1855 160.718 34.4922L155.276 24.1238L147.481 79.6564L143.884 85.6881C140.41 84.5013 134.499 82.8438 128.547 82.8438C122.601 82.8438 116.73 84.4951 113.272 85.6842L109.672 79.6553L106.936 60.1893C106.94 60.1569 106.944 60.1137 106.944 60.0939L106.923 60.091L101.865 24.1238L96.3089 34.4928C94.3616 38.185 77.2051 70.9098 77.2051 82.7336V83.4275L85.0612 104.728C83.8049 116.342 81.4067 141.569 83.2906 146.5C84.4642 149.584 88.9818 155.949 92.8028 161.051L87.6564 209.879L94.7422 214.968L98.4873 179.449C99.0253 182.903 99.8194 186.551 100.998 189.846C102.624 194.387 105.495 197.824 109.172 199.864C109.391 210.735 119.315 216.598 128.666 216.598C137.939 216.598 147.782 210.731 147.997 199.856C151.665 197.82 154.534 194.382 156.158 189.846C157.385 186.419 158.19 182.602 158.726 179.028L162.493 214.675L169.579 209.406L164.445 160.904C168.236 155.824 172.669 149.552 173.832 146.503C175.715 141.574 173.22 116.342 171.965 104.73L179.682 83.4264V82.7336H179.683Z" fill="#333152"/>
        <path d="M137.518 171.34H119.708C119.708 171.34 117.313 175.589 117.313 176.968C117.313 181.062 128.275 187.583 128.275 187.583C128.275 187.583 139.854 180.869 139.854 176.968C139.854 175.107 137.518 171.34 137.518 171.34Z" fill="#333152"/>
        <path d="M134.085 183.822C133.091 182.029 131.81 181.702 131.221 183.084C130.634 184.468 130.97 187.043 131.963 188.832C132.957 190.626 134.24 190.953 134.825 189.569C135.414 188.187 135.079 185.611 134.085 183.822Z" fill="#C49A7E"/>
        <path d="M123.082 183.822C122.087 185.611 121.756 188.187 122.341 189.569C122.928 190.953 124.208 190.625 125.206 188.832C126.199 187.043 126.532 184.468 125.944 183.085C125.358 181.702 124.077 182.03 123.082 183.822Z" fill="#D8B7A0"/>
    </g>
    <defs>
        <clipPath id="clip0_32_157">
            <rect width="145" height="238" fill="white" transform="translate(56 9)"/>
        </clipPath>
    </defs>
</svg>

<svg xmlns="http://www.w3.org/2000/svg" width="256" height="256" fill="none"><path fill="#F4F2ED" d="M196 0H60C26.863 0 0 26.863 0 60v136c0 33.137 26.863 60 60 60h136c33.137 0 60-26.863 60-60V60c0-33.137-26.863-60-60-60"/><g clip-path="url(#clip0_32_157)"><path fill="#fff" d="M179.261 65.485c-4.831-15.024-15.815-36.134-17.38-39.106l-1.363-2.597a302 302 0 0 0-2.722-5.317l-4.949-9.43-7.09 50.51-.247 1.836a297 297 0 0 0-16.912-.477c-6.003 0-11.679.176-17.011.483l-.219-1.844-2.488-17.705c.003-.03-4.613-32.803-4.613-32.803l-5.053 9.43a342 342 0 0 0-3.632 7.101l-.436.813c-1.569 2.975-12.657 24.123-17.519 39.148C63.603 68.243 56 71.148 56 71.148v122.779l72.499 52.652L201 193.928V71.148s-7.627-2.935-21.739-5.663"/><path fill="#3B3B63" d="M159.694 160.809h-31.251v-53.645L96.734 159.24l-4.93 53.476 36.152 26.472.487.359 36.971-27.022z"/><path fill="#DBDBDB" d="m127.908 238.997-67.275-48.898V76.076S85.51 66.563 128 66.563c42.492 0 67.185 9.513 67.185 9.513v114.023z"/><path fill="#C6C6C6" d="M128.882 66.563h-.092v172.431h.001l67.276-48.898V76.076s-24.694-9.513-67.185-9.513"/><path fill="#3B3B63" d="m165.23 212.415-5.71-51.606h-31.252v78.618z"/><path fill="#53537A" d="m91.804 212.716 36.639 26.831V107.164L96.734 159.24z"/><path fill="#BC9375" d="M144.212 197.472c0 8.849-8.108 13.235-15.546 13.235s-15.71-4.386-15.71-13.235"/><path fill="#073251" d="M139.654 192.458c0 10.377-5.481 13.159-11.07 13.159-5.588 0-11.071-2.782-11.071-13.159"/><path fill="#fff" d="M128.583 202.048c-5.971 0-8.875-4.466-8.875-13.645h2.848c0 10.747 4.07 10.747 6.027 10.747s6.028 0 6.028-10.747h2.847c0 9.179-2.904 13.645-8.875 13.645"/><path fill="#C49A7E" d="M175.983 82.642c0-11.195-18.561-46.417-18.561-46.417l-6.279 44.67-5.635 9.43-16.89.7-.066.138v-.138l-16.892-.7-5.634-9.43-6.278-44.67S81.185 71.447 81.185 82.642l7.842 21.51s-3.958 36.13-2.151 40.86c1.801 4.732 14.313 20.554 14.313 20.554s-.037 13.301 3.388 22.864c2.444 6.829 7.829 9.599 12.985 9.599 7.898 0 10.988-7.386 10.988-7.386s3.164 7.386 11.062 7.386c5.155 0 10.534-2.766 12.984-9.599 3.422-9.559 3.387-22.864 3.387-22.864s12.509-15.822 14.314-20.554c1.806-4.731-2.153-40.861-2.153-40.861z"/><path fill="#D8B7A0" d="m128.583 91.096-.032.067v-.138l-16.893-.7-5.632-9.43-6.281-44.67S81.184 71.449 81.184 82.644l7.84 21.509s-3.957 36.131-2.153 40.861c1.806 4.732 14.312 20.554 14.312 20.554s-.032 13.301 3.39 22.864c2.447 6.829 7.833 9.599 12.984 9.599 7.902 0 10.992-7.386 10.992-7.386q.002.001.035.075z"/><path fill="#3B3B63" d="M168.313 106.268c-1.438-3.068.607-10.329.607-10.329-11.721-12.246-14.652-37.781-14.652-37.781-2.189 8.046-6.946 31.77-6.946 31.77s-8.748-3.32-18.7-3.336h-.074a61 61 0 0 0-1.623.034v100.108l.743 1.109v-.548h.459v.548l.005-.548h1.372v.548l8.102-12.059 1.761-33.863 10.088 11.728 12.995 3.87s4.862-3.533 4.862-3.52c2.065-2.946 2.75-5.456 3.249-6.758 1.805-4.738-2.248-40.972-2.248-40.972"/><path fill="#53537A" d="M128.674 86.59h-.034c-9.956.017-18.705 3.336-18.705 3.336s-4.758-23.723-6.945-31.77c0 0-2.929 25.536-14.653 37.781 0 0 2.046 7.262.607 10.33 0 0-4.053 36.236-2.247 40.967.498 1.303 1.188 3.811 3.25 6.757 0-.013 4.864 3.521 4.864 3.521l12.994-3.87 10.085-11.727 1.766 33.863 8.098 12.059v-.548h.919z"/><path fill="#333152" d="M152.164 128.934h-15.182v.163c0 5.398 4.585 9.771 9.962 9.771 5.379 0 9.964-4.374 9.964-9.771v-.163z"/><path fill="#fff" d="M140.777 128.934v.163c0 3.211 2.539 5.813 5.695 5.813 3.155 0 5.692-2.602 5.692-5.813v-.163z"/><path fill="#333152" d="M148.228 128.934h-2.668c-.026 0-.048.013-.071.018.331.07.514.834.443 1.343a1.54 1.54 0 0 1-1.502 1.329 2.53 2.53 0 0 0 2.111 1.988 2.52 2.52 0 0 0 2.851-2.17c.141-1.033-.348-2.508-1.164-2.508m-32.712 0h-15.181v.163c0 5.398 4.585 9.771 9.962 9.771 5.379 0 9.964-4.374 9.964-9.771v-.163z"/><path fill="#fff" d="M104.131 128.934v.163c0 3.211 2.54 5.813 5.692 5.813 3.156 0 5.694-2.602 5.694-5.813v-.163z"/><path fill="#333152" d="M111.581 128.934h-2.67c-.023 0-.048.013-.07.018.33.07.513.834.443 1.343a1.53 1.53 0 0 1-1.504 1.329 2.54 2.54 0 0 0 2.112 1.988 2.52 2.52 0 0 0 2.851-2.17c.143-1.033-.346-2.508-1.162-2.508"/><path fill="#C49A7E" d="M151.019 124.326c.637-.711 6.049-6.962-1.189-6.962-6.54 0-11.246 5.372-12.493 6.962z"/><path fill="#D8B7A0" d="M119.799 124.326c-1.246-1.59-5.952-6.962-12.494-6.962-7.235 0-1.823 6.251-1.189 6.962z"/><path fill="#53537A" d="M96.843 128.876h27.687v-2.65H96.843z"/><path fill="#333152" d="M168.815 91.296c-8.051-11.52-10.576-30.25-10.796-31.96l1.469-10.44c5.978 12.382 12.25 27.077 12.68 33.21zm-2.057 52.409c-1.098 2.876-8.691 13.15-13.734 19.529l-.841 1.069.004 1.365c0 .123-.004 12.716-3.159 21.53-2.281 6.369-7.348 7.058-9.417 7.058-5.241 0-7.502-4.89-7.582-5.067l-.299-4.58h-6.371l-.287 4.554c-.091.207-2.297 5.08-7.511 5.08-2.075 0-7.14-.681-9.422-7.051-3.145-8.781-3.16-21.401-3.16-21.529l.005-1.365-.841-1.064c-5.04-6.375-12.633-16.649-13.705-19.454-.858-3.035.557-22.661 2.359-39.106l.099-.913-1.421-3.894c4.882-5.21 8.309-12.382 10.672-19.208l.23 1.662 7.754 12.971 3.031-1.324c.076-.033 7.845-3.398 15.39-3.398 7.496 0 15.394 3.368 15.468 3.401l3.025 1.313 7.746-12.966.303-2.165c2.34 6.893 5.762 14.192 10.668 19.518l-1.488 4.087.099.912c1.8 16.449 3.215 36.075 2.385 39.035m-42.899 56.925a14.8 14.8 0 0 0 2.736-1.607c.738.219 1.445.219 1.988.219.541 0 1.241.006 1.973-.215a15.2 15.2 0 0 0 2.74 1.603c-1.272.967-2.837 1.511-4.709 1.511-1.882 0-3.455-.539-4.728-1.511m4.807 8.239c-4.167 0-10.091-1.891-11.565-6.904.151.005.299.018.453.018.805 0 1.56-.075 2.29-.181 2.113 2.995 5.405 3.914 8.74 3.914 3.341 0 6.64-.91 8.757-3.91.725.101 1.471.177 2.27.177.157 0 .307-.013.464-.017-1.46 5.012-7.305 6.903-11.409 6.903M85.003 82.104c.43-6.132 6.698-20.827 12.677-33.21l1.594 11.323c-.608 4.233-3.385 20.836-10.836 31.301zm94.68.63c0-11.824-17.021-44.548-18.965-48.242l-5.442-10.368-7.795 55.532-3.597 6.032c-3.474-1.187-9.385-2.844-15.337-2.844-5.946 0-11.817 1.651-15.275 2.84l-3.6-6.029-2.736-19.466c.004-.032.008-.075.008-.095l-.021-.003-5.058-35.967-5.556 10.369c-1.947 3.692-19.104 36.417-19.104 48.24v.694l7.856 21.301c-1.256 11.614-3.654 36.841-1.77 41.772 1.173 3.084 5.69 9.449 9.512 14.551l-5.147 48.828 7.086 5.089 3.745-35.519c.538 3.454 1.332 7.102 2.511 10.397 1.626 4.541 4.497 7.978 8.174 10.018.219 10.871 10.143 16.734 19.494 16.734 9.273 0 19.116-5.867 19.331-16.742 3.668-2.036 6.537-5.474 8.161-10.01 1.227-3.427 2.032-7.244 2.568-10.818l3.767 35.647 7.086-5.269-5.134-48.502c3.791-5.08 8.224-11.352 9.387-14.401 1.883-4.929-.612-30.161-1.867-41.773l7.717-21.304z"/><path fill="#333152" d="M137.518 171.34h-17.81s-2.395 4.249-2.395 5.628c0 4.094 10.962 10.615 10.962 10.615s11.579-6.714 11.579-10.615c0-1.861-2.336-5.628-2.336-5.628"/><path fill="#C49A7E" d="M134.085 183.822c-.994-1.793-2.275-2.12-2.864-.738-.587 1.384-.251 3.959.742 5.748.994 1.794 2.277 2.121 2.862.737.589-1.382.254-3.958-.74-5.747"/><path fill="#D8B7A0" d="M123.082 183.822c-.995 1.789-1.326 4.365-.741 5.747.587 1.384 1.867 1.056 2.865-.737.993-1.789 1.326-4.364.738-5.747-.586-1.383-1.867-1.055-2.862.737"/></g><defs><clipPath id="clip0_32_157"><path fill="#fff" d="M56 9h145v238H56z"/></clipPath></defs></svg>
